Yaru++/mimetypes/16/text-x-tex.svg

<svg height="16" width="16" xmlns="http://www.w3.org/2000/svg">
  <path d="m9.8182675 2.507134v.277431h.1850925c.492799 0 .662629.06388.832871.314851l1.647226 2.498579-1.480654 2.165474c-.125449.179158-.390615.592281-1.2955759.592281v.277431l.9994429-.0378c.331519 0 .824949.01134 1.14751.0378v-.277431c-.412159-.0076-.573757-.26458-.573757-.425709 0-.08051.02986-.105076.09253-.203727l1.277067-1.887853 1.406621 2.146952c.01776.03402.05552.06577.05552.0926 0 .107344-.206977.268738-.592266.277809v.277431c.313603-.02646.973601-.0378 1.314085-.0378l1.166015.0378v-.277431h-.166572c-.465921 0-.663218-.05556-.851376-.33337l-1.887838-2.850244 1.221543-1.795289c.197112-.28688.516638-.583323 1.314078-.592281v-.277431l-.999439.0378c-.358393 0-.78911-.01134-1.14751-.0378v.277431c.358392.0076.555244.201081.555244.407189 0 .08958-.01134.123596-.07405.222247l-1.036457 1.499185-1.147506-1.721281c-.01776-.02646-.05552-.09374-.05552-.129644 0-.107344.188457-.268738.573757-.277431v-.277431c-.313607.02646-.973609.0378-1.314086.0378zm-9.6516955 0-.166572 2.017385h.222096c.125449-1.442528.257248-1.739765 1.610211-1.739765.161281 0 .391616.000454.481215.0189.188154.03402.203575.126998.203575.332993v4.822839c0 .304645-.0031.462939-.943915.444192h-.370148v.277809c.367351-.02646 1.290598-.0378 1.702757-.0378s1.335392.01134 1.70275.0378v-.277808h-.370147c-.940801 0-.925407-.139472-.925407-.444192v-4.822839c0-.179159-.01323-.297464.148052-.332993.09858-.0189.347998-.0189.518229-.0189 1.35296 0 1.484773.297086 1.610214 1.739803h.222096l-.166572-2.017423zm4.806367 2.359789v.277431h.222096c.689919 0 .703314.08467.703314.407189v4.745354c0 .32241-.01323.425672-.703314.425672h-.222096v.277431h5.16378l.388676-2.313525h-.240617c-.223985 1.379822-.4207495 2.035905-1.961871 2.035905h-1.184524c-.421117 0-.444192-.07446-.444192-.370034v-2.409681h.795849c.8691182 0 .9809335.293306.9809335 1.054956h.2220959v-2.38757h-.2220959c0 .770571-.111804 1.054956-.9809335 1.054956h-.795849v-2.169064c0-.295574.02306-.351513.444192-.351513h1.1475092c1.3708795 0 1.6149205.475828 1.7582808 1.721281h.222096l-.259137-1.998901z" fill="#808080"/>
</svg>

<svg xmlns="http://www.w3.org/2000/svg" width="16" height="16" version="1.1">
 <path style="fill:#808080" d="M 9.8182675,2.507134 V 2.784565 H 10.00336 c 0.492799,0 0.662629,0.06388 0.832871,0.314851 l 1.647226,2.498579 -1.480654,2.165474 C 10.877354,7.942627 10.612188,8.35575 9.7072271,8.35575 v 0.277431 l 0.9994429,-0.0378 c 0.331519,0 0.824949,0.01134 1.14751,0.0378 V 8.35575 c -0.412159,-0.0076 -0.573757,-0.26458 -0.573757,-0.425709 0,-0.08051 0.02986,-0.105076 0.09253,-0.203727 l 1.277067,-1.887853 1.406621,2.146952 c 0.01776,0.03402 0.05552,0.06577 0.05552,0.0926 0,0.107344 -0.206977,0.268738 -0.592266,0.277809 v 0.277431 c 0.313603,-0.02646 0.973601,-0.0378 1.314085,-0.0378 l 1.166015,0.0378 V 8.355822 h -0.166572 c -0.465921,0 -0.663218,-0.05556 -0.851376,-0.33337 L 13.094209,5.172208 14.315752,3.376919 C 14.512864,3.090039 14.83239,2.793596 15.62983,2.784638 V 2.507207 l -0.999439,0.0378 c -0.358393,0 -0.78911,-0.01134 -1.14751,-0.0378 v 0.277431 c 0.358392,0.0076 0.555244,0.201081 0.555244,0.407189 0,0.08958 -0.01134,0.123596 -0.07405,0.222247 L 12.927618,4.913259 11.780112,3.191978 c -0.01776,-0.02646 -0.05552,-0.09374 -0.05552,-0.129644 0,-0.107344 0.188457,-0.268738 0.573757,-0.277431 V 2.507472 c -0.313607,0.02646 -0.973609,0.0378 -1.314086,0.0378 z m -9.6516955,0 L 0,4.524519 H 0.222096 C 0.347545,3.081991 0.479344,2.784754 1.832307,2.784754 c 0.161281,0 0.391616,4.54e-4 0.481215,0.0189 0.188154,0.03402 0.203575,0.126998 0.203575,0.332993 v 4.822839 c 0,0.304645 -0.0031,0.462939 -0.943915,0.444192 H 1.203034 v 0.277809 c 0.367351,-0.02646 1.290598,-0.0378 1.702757,-0.0378 0.412159,0 1.335392,0.01134 1.70275,0.0378 V 8.403679 H 4.238394 c -0.940801,0 -0.925407,-0.139472 -0.925407,-0.444192 V 3.136648 c 0,-0.179159 -0.01323,-0.297464 0.148052,-0.332993 0.09858,-0.0189 0.347998,-0.0189 0.518229,-0.0189 1.35296,0 1.484773,0.297086 1.610214,1.739803 H 5.811578 L 5.645006,2.507135 Z m 4.806367,2.359789 v 0.277431 h 0.222096 c 0.689919,0 0.703314,0.08467 0.703314,0.407189 v 4.745354 c 0,0.32241 -0.01323,0.425672 -0.703314,0.425672 H 4.972939 V 11 h 5.16378 L 10.525395,8.686475 H 10.284778 C 10.060793,10.066297 9.8640285,10.72238 8.322907,10.72238 H 7.138383 c -0.421117,0 -0.444192,-0.07446 -0.444192,-0.370034 V 7.942665 H 7.49004 c 0.8691182,0 0.9809335,0.293306 0.9809335,1.054956 H 8.6930694 V 6.610051 H 8.4709735 c 0,0.770571 -0.111804,1.054956 -0.9809335,1.054956 H 6.694191 V 5.495943 c 0,-0.295574 0.02306,-0.351513 0.444192,-0.351513 h 1.1475092 c 1.3708795,0 1.6149205,0.475828 1.7582808,1.721281 h 0.222096 L 10.007132,4.86681 Z"/>
</svg>
